css/img/x.svg

<svg xmlns="http://www.w3.org/2000/svg" viewBox="0 0 74 89.8">
    <path d="M1.5 78.8l34.1-34.9 26.1-42c1.7-2.2 3.5 2.7 5.6 4.4 2.2 1.7 7 2.5 5.2 4.8l-34.3 35-25.9 41.8c-1.7 2.2-3.2-2.7-5.3-4.4-2.2-1.7-7.3-2.5-5.5-4.7z"/>
    <path d="M72.5 78.8l-34.1-35-26-41.9C10.7-.3 8.9 4.6 6.8 6.3 4.6 8-.2 8.8 1.6 11.1l34.3 35.1L61.8 88c1.7 2.2 3.2-2.7 5.3-4.4 2.1-1.8 7.2-2.6 5.4-4.8z"/>
</svg>

<?xml version="1.0" encoding="utf-8"?>
<svg version="1.1" id="button" xmlns="http://www.w3.org/2000/svg" xmlns:xlink="http://www.w3.org/1999/xlink" x="0px" y="0px"
	 viewBox="0 0 74 89.8" style="enable-background:new 0 0 74 89.8;" xml:space="preserve">
<g id="X">
	<path id="componentA" d="M1.5,78.8l34.1-34.9L61.7,1.9c1.7-2.2,3.5,2.7,5.6,4.4l0,0c2.2,1.7,7,2.5,5.2,4.8L38.2,46.1L12.3,87.9
		c-1.7,2.2-3.2-2.7-5.3-4.4h0C4.8,81.8-0.3,81,1.5,78.8z"/>
	<path id="componentB" d="M72.5,78.8L38.4,43.8L12.4,1.9c-1.7-2.2-3.5,2.7-5.6,4.4l0,0c-2.2,1.7-7,2.5-5.2,4.8l34.3,35.1l25.9,41.8
		c1.7,2.2,3.2-2.7,5.3-4.4h0C69.2,81.8,74.3,81,72.5,78.8z"/>
</g>
</svg>
